src/assets/dealer-chip.svg

<?xml version="1.0" encoding="UTF-8" standalone="no"?>
<svg
   xmlns:dc="http://purl.org/dc/elements/1.1/"
   xmlns:cc="http://creativecommons.org/ns#"
   xmlns:rdf="http://www.w3.org/1999/02/22-rdf-syntax-ns#"
   xmlns:svg="http://www.w3.org/2000/svg"
   xmlns="http://www.w3.org/2000/svg"
   xmlns:sodipodi="http://sodipodi.sourceforge.net/DTD/sodipodi-0.dtd"
   xmlns:inkscape="http://www.inkscape.org/namespaces/inkscape"
   version="1.1"
   id="svg23"
   sodipodi:docname="dealer-chip.svg"
   width="31.549999"
   height="25.799999"
   inkscape:version="0.92.4 (5da689c313, 2019-01-14)">
  <metadata
     id="metadata27">
    <rdf:RDF>
      <cc:Work
         rdf:about="">
        <dc:format>image/svg+xml</dc:format>
        <dc:type
           rdf:resource="http://purl.org/dc/dcmitype/StillImage" />
        <dc:title></dc:title>
      </cc:Work>
    </rdf:RDF>
  </metadata>
  <sodipodi:namedview
     pagecolor="#ffffff"
     bordercolor="#666666"
     borderopacity="1"
     objecttolerance="10"
     gridtolerance="10"
     guidetolerance="10"
     inkscape:pageopacity="0"
     inkscape:pageshadow="2"
     inkscape:window-width="1920"
     inkscape:window-height="1017"
     id="namedview25"
     showgrid="false"
     inkscape:zoom="2.36"
     inkscape:cx="50"
     inkscape:cy="-24.2"
     inkscape:window-x="1912"
     inkscape:window-y="-8"
     inkscape:window-maximized="1"
     inkscape:current-layer="svg23" />
  <defs
     id="defs13">
    <linearGradient
       gradientUnits="userSpaceOnUse"
       x1="-819.20001"
       x2="819.20001"
       spreadMethod="pad"
       gradientTransform="matrix(0.01748657,0.00636292,0.00636292,-0.01748657,15.8,10.9)"
       id="gradient0">
      <stop
         offset="0.10588235294117647"
         stop-color="#CCCCCC"
         id="stop2" />
      <stop
         offset="0.41568627450980394"
         stop-color="#F2F2F2"
         id="stop4" />
      <stop
         offset="0.6392156862745098"
         stop-color="#FFFFFF"
         id="stop6" />
      <stop
         offset="0.9058823529411765"
         stop-color="#CCCCCC"
         id="stop8" />
      <stop
         offset="1"
         stop-color="#E6E6E6"
         id="stop10" />
    </linearGradient>
  </defs>
  <g
     id="g21">
    <path
       d="m 31.55,11.25 v 3.7 q 0,4.5 -4.6,7.7 Q 22.35,25.8 15.8,25.8 9.25,25.8 4.65,22.65 0,19.45 0,14.95 v -3.7 Q 0.05,7.2 4.7,5.75 8.05,4.7 15.8,4.7 q 7.75,0 11.1,1.05 4.6,1.45 4.65,5.5"
       id="path15"
       inkscape:connector-curvature="0"
       style="fill:#cccccc;stroke:none" />
    <path
       d="m 31.55,10.9 q 0,4.5 -4.6,7.7 -4.6,3.15 -11.15,3.15 Q 9.25,21.75 4.65,18.6 0,15.4 0,10.9 0,6.4 4.65,3.2 9.3,0 15.8,0 q 6.5,0 11.15,3.2 4.6,3.2 4.6,7.7"
       id="path17"
       inkscape:connector-curvature="0"
       style="fill:url(#gradient0);stroke:none" />
    <path
       d="M 20.8,14.4 14.65,16.35 5.9,8.5 11.85,6.55 Q 13.5,6 15.1,5.7 16.9,5.45 18.3,5.65 l 3,0.8 q 1.15,0.45 2.6,1.65 1,0.95 1.35,1.85 0.35,1 -0.2,1.95 -0.3,0.6 -1.55,1.4 l -2.7,1.1 m 0.9,-2.65 Q 22,11.3 21.7,10.7 L 20.45,9.15 18.55,7.85 16.8,7.4 14.85,7.5 12.1,8.3 l -1.45,0.45 5.8,5.25 4.3,-1.5 0.95,-0.75"
       id="path19"
       inkscape:connector-curvature="0"
       style="fill:#000000;stroke:none" />
  </g>
</svg>

<?xml version="1.0" encoding="utf-8"?>
<!-- Generator: Adobe Illustrator 23.0.6, SVG Export Plug-In . SVG Version: 6.00 Build 0)  -->
<svg version="1.1"
	 id="svg23" xmlns:cc="http://creativecommons.org/ns#" xmlns:dc="http://purl.org/dc/elements/1.1/" xmlns:inkscape="http://www.inkscape.org/namespaces/inkscape" xmlns:rdf="http://www.w3.org/1999/02/22-rdf-syntax-ns#" xmlns:sodipodi="http://sodipodi.sourceforge.net/DTD/sodipodi-0.dtd" xmlns:svg="http://www.w3.org/2000/svg"
	 xmlns="http://www.w3.org/2000/svg" xmlns:xlink="http://www.w3.org/1999/xlink" x="0px" y="0px" viewBox="0 0 31.5 25.8"
	 style="enable-background:new 0 0 31.5 25.8;" xml:space="preserve">
<style type="text/css">
	.st0{fill:#FFE36C;}
	.st1{fill:url(#path17_1_);}
</style>
<sodipodi:namedview  bordercolor="#666666" borderopacity="1" gridtolerance="10" guidetolerance="10" id="namedview25" inkscape:current-layer="svg23" inkscape:cx="50" inkscape:cy="-24.2" inkscape:pageopacity="0" inkscape:pageshadow="2" inkscape:window-height="1017" inkscape:window-maximized="1" inkscape:window-width="1920" inkscape:window-x="1912" inkscape:window-y="-8" inkscape:zoom="2.36" objecttolerance="10" pagecolor="#ffffff" showgrid="false">
	</sodipodi:namedview>
<path id="path15" inkscape:connector-curvature="0" class="st0" d="M31.5,11.2v3.7c0,3-1.5,5.6-4.6,7.7c-3.1,2.1-6.8,3.1-11.1,3.1
	c-4.4,0-8.1-1-11.1-3.1C1.6,20.5,0,18,0,14.9v-3.7c0-2.7,1.6-4.5,4.7-5.5C6.9,5,10.6,4.7,15.8,4.7S24.7,5,26.9,5.8
	C30,6.7,31.5,8.6,31.5,11.2"/>
<linearGradient id="path17_1_" gradientUnits="userSpaceOnUse" x1="110433.5781" y1="39561.5938" x2="112071.9766" y2="39561.5938" gradientTransform="matrix(1.748657e-02 6.362920e-03 -6.362920e-03 1.748657e-02 -1677.8986 -1388.7991)">
	<stop  offset="0.1059" style="stop-color:#F9F06C"/>
	<stop  offset="0.4157" style="stop-color:#FEFCE5"/>
	<stop  offset="0.6392" style="stop-color:#FFFFFF"/>
	<stop  offset="0.9059" style="stop-color:#F8EE5C"/>
	<stop  offset="1" style="stop-color:#FFF9D4"/>
</linearGradient>
<path id="path17" inkscape:connector-curvature="0" class="st1" d="M31.5,10.9c0,3-1.5,5.6-4.6,7.7c-3.1,2.1-6.8,3.1-11.1,3.1
	c-4.4,0-8.1-1-11.1-3.1C1.6,16.5,0,13.9,0,10.9s1.6-5.6,4.7-7.7S11.5,0,15.8,0S23.9,1.1,27,3.2C30,5.3,31.6,7.9,31.5,10.9"/>
<path id="path19" inkscape:connector-curvature="0" d="M20.8,14.4l-6.1,2L5.9,8.5l6-1.9c1.1-0.4,2.2-0.7,3.2-0.9
	c1.2-0.2,2.3-0.2,3.2,0l3,0.8c0.8,0.3,1.6,0.9,2.6,1.7c0.7,0.6,1.1,1.2,1.4,1.9c0.2,0.7,0.2,1.3-0.2,1.9c-0.2,0.4-0.7,0.9-1.5,1.4
	L20.8,14.4 M21.7,11.8c0.2-0.3,0.2-0.7,0-1.1l-1.2-1.6l-1.9-1.3l-1.8-0.4l-1.9,0.1l-2.8,0.8l-1.4,0.4l5.8,5.2l4.3-1.5L21.7,11.8"/>
</svg>
